X:1
T:Title
%%score { 1 | 2 }
L:1/8
Q:1/4=100
M:4/4
K:D
V:1 treble nm="Grand Piano"
V:2 bass 
V:1
 F2 F2 A2 G2 | F4 [CE]4 | G2 G2 B2 A2 | F6 z2 | [FA]2 [FA]2 [Fd]2 F2 | F4 E4 | %6
w: I.~H.~Meredith * * *||||||
 E2 F2 G2 C2[Q:1/4=98][Q:1/4=97][Q:1/4=95][Q:1/4=94][Q:1/4=92][Q:1/4=91][Q:1/4=89][Q:1/4=88][Q:1/4=86][Q:1/4=84][Q:1/4=83][Q:1/4=81][Q:1/4=80][Q:1/4=78][Q:1/4=77] | %7
w: |
[M:8/4] D8 z8 |[M:4/4] [B,DG]8 | [A,DF]6 z2 |] %10
w: |||
V:2
 [D,A,D]2 [D,A,D]2 [F,A,D]2 [G,B,E]2 | [A,D]4 [A,,A,]4 | [A,CE]2 [A,CE]2 [A,CG]2 [A,CF]2 | %3
 [D,A,D]6 z2 | [D,D]2 [D,D]2 [D,A,]2 [F,A,D]2 | [G,B,D]4 [G,B,D]4 | %6
 [G,B,]2 [F,B,^D]2 [E,B,E]2 [A,,G,A,]2 |[M:8/4] [D,F,A,]8 z8 |[M:4/4] G,,8 | D,6 z2 |] %10

